cssgg/mouse.svg

<svg
  width="24"
  height="24"
  viewBox="0 0 24 24"
  fill="none"
  xmlns="http://www.w3.org/2000/svg"
>
  <path
    d="M12 5C11.4477 5 11 5.44772 11 6V10C11 10.5523 11.4477 11 12 11C12.5523 11 13 10.5523 13 10V6C13 5.44772 12.5523 5 12 5Z"
    fill="currentColor"
  />
  <path
    fill-rule="evenodd"
    clip-rule="evenodd"
    d="M4 8C4 3.58172 7.58172 0 12 0C16.4183 0 20 3.58172 20 8V16C20 20.4183 16.4183 24 12 24C7.58172 24 4 20.4183 4 16V8ZM18 8V16C18 19.3137 15.3137 22 12 22C8.68629 22 6 19.3137 6 16V8C6 4.68629 8.68629 2 12 2C15.3137 2 18 4.68629 18 8Z"
    fill="currentColor"
  />
</svg>

<svg viewBox="0 0 24 24" xmlns="http://www.w3.org/2000/svg"><g><path d="M12 5c-.56 0-1 .44-1 1v4c0 .55.44 1 1 1 .55 0 1-.45 1-1V6c0-.56-.45-1-1-1Z"/><path fill-rule="evenodd" d="M4 8c0-4.42 3.58-8 8-8 4.41 0 8 3.58 8 8v8c0 4.41-3.59 8-8 8 -4.42 0-8-3.59-8-8V8Zm14 0v8c0 3.31-2.69 6-6 6 -3.32 0-6-2.69-6-6V8c0-3.32 2.68-6 6-6 3.31 0 6 2.68 6 6Z"/></g></svg>
